X:1
T:I Will Give You Rest
T:I Will Give You Rest
T:J. Spencer Tilton
T:J. Spencer Tilton, 1898
T:Public Domain Courtesy of the Cyber Hymnal™
T:Public Domain Courtesy of the Cyber Hymnal™
C:J. Spencer Tilton
Z:Public Domain
Z:Courtesy of the Cyber Hymnal™
%%score ( 1 2 ) ( 3 4 )
L:1/8
Q:1/4=100
M:9/8
K:C
V:1 treble 
V:2 treble 
V:3 bass 
V:4 bass 
V:1
 [EG][CE][EG] | [Ec]3 [Ge]3 [Ec][EG][FA] | [EG]3 [CE]3 [Ec][EG][CE] | [B,D]3 [DF]3 [DF][EG][DF] | %4
w: 1.~Come un- to|Me, all ye who are|wea- ry, Hea- vi- ly|la- den, cum- bered with|
w: 2.~Come un- to|Me, ye bur- dened with|sor- rows, Pil- low your|wea- ry head on My|
w: 3.~Come un- to|Me, ye wretch- ed and|sin- ful, Why do you|wait, my Spir- it to|
w: 4.~Rest for the|wea- ry, food for the|hun- gry, Grace for the|hum- ble, joy for the|
 [CE]6 [EG][CE][EG] | [Ec]3 [Ge]3 [Ec][EG][FA] | [EG]3 [Ec]3 [Ec][EB][EA] | %7
w: care. Cast up- on|Me the sum of your|an- guish, I will give|
w: breast; Breathe in My|ear the tale of your|heart’s woes, Ev- er in|
w: grieve? Long have I|stood with arms wide ex-|tend- ed; Look un- to|
w: sad, Sight for the|blind, and balm for the|wound- ed, Come un- to|
 [EG]3 [CE]3 [DG][EA][FB] | [Ec]6 ||"^Refrain" [CE][EG][Ec] | [Ge]3 [Ec]3 [FA][GB][FA] | %11
w: joy and bless- ing most|rare.|||
w: Me the wea- ry find|rest.|Come un- to|Me, ye hea- vi- ly|
w: Me, yes, lo- ok and|live.|||
w: Me, re- joice and be|glad.|||
 [FA]3 [EG]3 [CE][EG][Ec] | [FB]3 [FA]3 [EG][FA][EG] | [CE]6 [CE][EG][Ec] | %14
w: |||
w: la- den, Bur- dened with|care and sor- row op-|pressed; Breathe in My|
w: |||
w: |||
 [Ge]3 [Ec]3 [CE][DF][EG] | [FA]3 !fermata![Af]3 ([Ge][Fd])[Ec] |"^riten." [EG]3 [EG]3 G3- | %17
w: |||
w: ear the tale of your|sor- rows, I * will|give you rest.|
w: |||
w: |||
 [EG]6 |] %18
w: |
w: |
w: |
w: |
V:2
 x3 | x9 | x9 | x9 | x9 | x9 | x9 | x9 | x6 || x3 | x9 | x9 | x9 | x9 | x9 | x9 | x6 DEF | x6 |] %18
V:3
 [C,C][C,C][C,C] | [C,G,]3 [C,G,]3 [C,G,][C,C][C,C] | [C,C]3 [C,G,]3 [C,G,][C,C][C,G,] | %3
w: |||
 [G,,B,]3 [G,,B,]3 [G,,B,][G,,B,][G,,G,] | [C,G,]6 [C,C][C,C][C,C] | %5
w: ||
 [C,G,]3 [C,C]3 [C,C][C,C][C,C] | [C,C]3 [C,G,]3 [C,G,][C,G,][C,C] | %7
w: ||
 [G,C]3 [G,C]3 [G,,B,][G,,C][G,,D] | [C,C]6 || z3 | [C,C][C,C][C,C] [C,G,]3 z2 [C,C] | %11
w: |||Come un- to Me, ye|
 [C,C][C,C][C,C] [C,C] [C,C]2 z3 | [G,,D][G,,D][G,,D] [G,,D]3 z2 [G,,B,] | %13
w: hea- vi- ly la- den,|Bur- dened with care and|
 [C,G,][C,G,][C,G,] [C,G,]3 z3 | [C,C][C,C][C,C] [C,G,]3 z2 [C,C] | %15
w: sor- row op- pressed;|Breathe in My ear the|
 [F,C][F,C][F,C] [F,C] !fermata![F,C]2 [G,C]2 [G,C] | [G,C]3 [G,C]3 (B,C)[G,D] | [C,C]6 |] %18
w: tale of your sor- rows, I will|give, will give * you|rest.|
V:4
 x3 | x9 | x9 | x9 | x9 | x9 | x9 | x9 | x6 || x3 | x9 | x9 | x9 | x9 | x9 | x9 | x6 G,2 x | x6 |] %18

